<?xml version="1.0" encoding="UTF-8"?>
<map version="1.0" tiledversion="1.0.3" orientation="orthogonal" renderorder="right-down" width="20" height="43" tilewidth="48" tileheight="48" nextobjectid="3">
 <tileset firstgid="1" name="TileCollision_48x48" tilewidth="48" tileheight="48" tilecount="20" columns="5">
  <image source="../img/tilesets/TileCollision_48x48.png" width="240" height="192"/>
 </tileset>
 <tileset firstgid="21" name="Sewer" tilewidth="48" tileheight="48" tilecount="100" columns="10">
  <image source="../img/tilesets/Sewer.png" width="480" height="480"/>
 </tileset>
 <tileset firstgid="121" name="CrapetTiles" tilewidth="48" tileheight="48" tilecount="18" columns="6">
  <image source="../img/tilesets/CrapetTiles.png" width="288" height="144"/>
  <terraintypes>
   <terrain name="Carpet" tile="-1"/>
  </terraintypes>
  <tile id="0" terrain=",,,0"/>
  <tile id="1" terrain=",,0,0"/>
  <tile id="2" terrain=",,0,"/>
  <tile id="3" terrain="0,0,0,"/>
  <tile id="4" terrain="0,0,,"/>
  <tile id="5" terrain="0,0,,0"/>
  <tile id="6" terrain=",0,,0"/>
  <tile id="7" terrain="0,0,0,0"/>
  <tile id="8" terrain="0,,0,"/>
  <tile id="9" terrain="0,,0,"/>
  <tile id="11" terrain=",0,,0"/>
  <tile id="12" terrain=",0,,"/>
  <tile id="13" terrain="0,0,,"/>
  <tile id="14" terrain="0,,,"/>
  <tile id="15" terrain="0,,0,0"/>
  <tile id="16" terrain=",,0,0"/>
  <tile id="17" terrain=",0,0,0"/>
 </tileset>
 <tileset firstgid="139" name="Inside_C" tilewidth="48" tileheight="48" tilecount="256" columns="16">
  <image source="../img/tilesets/Inside_C.png" width="768" height="768"/>
 </tileset>
 <tileset firstgid="395" name="Inside_B" tilewidth="48" tileheight="48" tilecount="256" columns="16">
  <image source="../img/tilesets/Inside_B.png" width="768" height="768"/>
 </tileset>
 <tileset firstgid="651" name="Inside_A4" tilewidth="48" tileheight="48" tilecount="240" columns="16">
  <image source="../img/tilesets/Inside_A4.png" width="768" height="720"/>
 </tileset>
 <imagelayer name="Bildebene">
  <image source="../../../../Downloads/Map017.png" width="960" height="2064"/>
 </imagelayer>
 <layer name="Floor" width="20" height="43" opacity="0.48">
  <data encoding="csv">
31,31,31,31,31,31,31,31,31,31,31,31,31,31,31,31,31,31,31,31,
31,31,31,31,31,31,31,31,31,31,31,31,31,31,31,31,31,31,31,31,
31,31,31,31,31,31,31,31,31,31,31,31,31,31,31,31,31,31,31,31,
31,31,31,31,31,31,31,31,31,31,31,31,31,31,31,31,31,31,31,31,
31,31,31,31,31,31,31,31,31,31,31,31,31,31,31,31,31,31,31,31,
31,31,31,31,31,31,31,31,31,31,31,31,31,31,31,31,31,31,31,411,
31,31,31,31,31,31,31,31,31,31,31,31,31,31,31,31,31,31,31,31,
31,31,31,31,31,31,31,31,31,31,31,31,31,31,31,31,31,31,31,31,
31,31,31,31,31,31,31,31,31,31,31,31,31,31,31,31,31,31,31,31,
31,31,31,31,31,31,31,31,31,31,31,31,31,31,31,31,31,31,31,31,
31,31,31,31,31,31,31,31,31,31,31,31,31,31,31,31,31,31,31,31,
31,31,31,31,31,31,31,31,31,31,31,31,31,31,31,31,31,31,31,31,
31,31,31,31,31,31,31,31,31,31,31,31,31,31,31,31,31,31,31,31,
31,31,31,31,31,31,31,31,31,31,31,31,31,31,31,31,31,31,31,31,
31,31,31,31,31,31,31,31,31,31,31,31,31,31,31,31,31,31,31,31,
31,31,31,31,31,31,31,31,31,31,31,31,31,31,31,31,31,31,31,31,
31,31,31,31,31,31,31,31,31,31,31,31,31,31,31,31,31,31,31,31,
31,31,31,31,31,31,31,31,31,31,31,31,31,31,31,31,31,31,31,31,
31,31,31,31,31,31,31,31,31,31,31,31,31,31,31,31,31,31,31,31,
31,31,31,31,31,31,31,31,31,31,31,31,31,31,31,31,31,31,31,31,
31,31,31,31,31,31,31,31,31,31,31,31,31,31,31,31,31,31,31,31,
31,31,31,31,31,31,31,31,31,31,31,31,31,31,31,31,31,31,31,31,
31,31,31,31,31,31,31,31,31,31,31,31,31,31,31,31,31,31,31,31,
31,31,31,31,31,31,31,31,31,31,31,31,31,31,31,31,31,31,31,31,
31,31,31,31,31,31,31,31,31,31,31,31,31,31,31,31,31,31,31,31,
31,31,31,31,31,31,31,31,31,31,31,31,31,31,31,31,31,31,31,31,
31,31,31,31,31,31,31,31,31,31,31,31,31,31,31,31,31,31,31,31,
31,31,31,31,31,31,31,31,31,31,31,31,31,31,31,31,31,31,31,31,
31,31,31,31,31,31,31,31,31,31,31,31,31,31,31,31,31,31,31,31,
31,31,31,31,31,31,31,31,31,31,31,31,31,31,31,31,31,31,31,31,
31,31,31,31,31,31,31,31,31,31,31,31,31,31,31,31,31,31,31,31,
31,31,31,31,31,31,31,31,31,31,31,31,31,31,31,31,31,31,31,31,
31,31,31,31,31,31,31,31,31,31,31,31,31,31,31,31,31,31,31,31,
31,31,31,31,31,31,31,31,31,31,31,31,31,31,31,31,31,31,31,31,
31,31,31,31,31,31,31,31,31,31,31,31,31,31,31,31,31,31,31,31,
31,31,31,31,31,31,31,31,31,31,31,31,31,31,31,31,31,31,31,31,
31,31,31,31,31,31,31,31,31,31,31,31,31,31,31,31,31,31,31,31,
31,31,31,31,31,31,31,31,31,31,31,31,31,31,31,31,31,31,31,31,
31,31,31,31,31,31,31,31,31,31,31,31,31,31,31,31,31,31,31,31,
31,31,31,31,31,31,31,31,31,31,31,31,31,31,31,31,31,31,31,31,
31,31,31,31,31,31,31,31,31,31,31,31,31,31,31,31,31,31,31,31,
31,31,31,31,31,31,31,31,31,31,31,31,31,31,31,31,31,31,31,31,
31,31,31,31,31,31,31,31,31,31,31,31,31,31,31,31,31,31,31,31
</data>
 </layer>
 <layer name="Carpet" width="20" height="43">
  <data encoding="csv">
0,0,0,0,0,0,0,0,0,0,0,0,0,0,0,0,0,0,0,0,
0,0,0,0,0,0,0,0,0,0,0,0,0,0,0,0,0,0,0,0,
0,0,0,0,0,0,0,0,0,0,0,0,0,0,0,0,0,0,0,0,
0,0,0,0,0,0,0,0,0,0,0,0,0,0,0,0,0,0,0,0,
0,0,0,0,0,0,0,0,0,0,0,0,0,0,0,0,0,0,0,0,
0,0,0,0,0,0,0,0,0,0,0,0,0,0,0,0,0,0,0,0,
0,0,0,0,0,0,0,0,0,0,0,0,0,0,0,0,0,0,0,0,
0,0,0,0,0,0,0,0,0,0,0,0,0,0,0,0,0,0,0,0,
0,0,0,0,0,0,121,122,122,137,122,137,137,123,0,0,0,0,0,0,
0,0,0,0,0,0,132,128,128,128,128,128,128,130,0,0,0,0,0,0,
0,0,0,0,0,0,132,128,128,128,128,128,128,129,0,0,0,0,0,0,
0,0,0,0,0,0,127,128,128,128,128,128,128,129,0,0,0,0,0,0,
0,0,0,0,0,0,127,128,128,128,128,128,128,130,0,0,0,0,0,0,
0,0,0,0,0,0,132,128,128,128,128,128,128,129,0,0,0,0,0,0,
0,0,0,0,0,0,127,128,128,128,128,128,128,130,0,0,0,0,0,0,
0,0,0,0,0,0,127,128,128,128,128,128,128,129,0,0,0,0,0,0,
0,0,0,0,0,0,127,128,128,128,128,128,128,130,0,0,0,0,0,0,
0,0,0,0,0,0,132,128,128,128,128,128,128,130,0,0,0,0,0,0,
0,0,0,0,0,0,127,128,128,128,128,128,128,129,0,0,0,0,0,0,
0,0,0,0,0,0,132,128,128,128,128,128,128,130,0,0,0,0,0,0,
0,0,0,0,0,0,132,128,128,128,128,128,128,130,0,0,0,0,0,0,
0,0,0,0,0,0,132,128,128,128,128,128,128,130,0,0,0,0,0,0,
0,0,0,0,0,0,132,128,128,128,128,128,128,129,0,0,0,0,0,0,
0,0,0,0,0,0,127,128,128,128,128,128,128,129,0,0,0,0,0,0,
0,0,0,0,0,0,127,128,128,128,128,128,128,129,0,0,0,0,0,0,
0,0,0,0,0,0,127,128,128,128,128,128,128,130,0,0,0,0,0,0,
0,0,0,0,0,0,127,128,128,128,128,128,128,129,0,0,0,0,0,0,
0,0,0,0,0,0,127,128,128,128,128,128,128,130,0,0,0,0,0,0,
0,0,0,0,0,0,132,128,128,128,128,128,128,130,0,0,0,0,0,0,
0,0,0,0,0,0,132,128,128,128,128,128,128,129,0,0,0,0,0,0,
0,0,0,0,0,0,127,128,128,128,128,128,128,130,0,0,0,0,0,0,
0,0,0,0,0,0,132,128,128,128,128,128,128,130,0,0,0,0,0,0,
0,0,0,0,0,0,127,128,128,128,128,128,128,130,0,0,0,0,0,0,
0,0,0,0,0,0,127,128,128,128,128,128,128,130,0,0,0,0,0,0,
0,0,0,0,0,0,132,128,128,128,128,128,128,129,0,0,0,0,0,0,
0,0,0,0,0,0,132,128,128,128,128,128,128,130,0,0,0,0,0,0,
0,0,0,0,0,0,132,128,128,128,128,128,128,130,0,0,0,0,0,0,
0,0,0,0,0,0,132,128,128,128,128,128,128,129,0,0,0,0,0,0,
0,0,0,0,0,0,127,128,128,128,128,128,128,129,0,0,0,0,0,0,
0,0,0,0,0,0,132,128,128,128,128,128,128,130,0,0,0,0,0,0,
0,0,0,0,0,0,127,128,128,128,128,128,128,130,0,0,0,0,0,0,
0,0,0,0,0,0,127,128,128,128,128,128,128,130,0,0,0,0,0,0,
0,0,0,0,0,0,127,128,128,128,128,128,128,129,0,0,0,0,0,0
</data>
 </layer>
 <layer name="Walls and Columns" width="20" height="43">
  <data encoding="csv">
0,0,0,567,0,0,309,0,0,0,0,0,228,0,0,0,567,0,0,0,
0,0,0,0,0,0,325,0,0,0,0,0,244,0,0,0,0,0,0,0,
662,662,662,551,0,0,0,0,0,0,0,0,0,0,0,0,551,661,661,662,
710,710,710,567,0,0,0,227,259,260,261,262,0,0,0,0,567,709,709,710,
726,726,726,0,0,0,0,243,275,276,277,278,0,0,0,0,0,725,725,726,
0,0,0,551,0,0,0,0,0,0,0,0,0,0,0,0,551,0,0,0,
0,0,0,567,0,0,0,0,0,0,0,0,0,0,0,0,567,0,0,0,
0,0,0,0,0,0,0,0,0,0,0,0,0,0,0,0,0,0,0,0,
662,662,662,551,0,0,0,0,0,0,0,0,0,0,0,0,551,661,661,662,
710,710,710,567,0,0,0,0,0,0,0,0,0,0,0,0,567,709,709,710,
726,726,726,0,0,0,0,0,0,0,0,0,0,0,0,0,0,725,725,726,
0,0,0,551,0,0,0,0,0,0,0,0,0,0,0,0,551,0,0,0,
0,0,0,567,0,635,635,0,0,0,0,0,0,635,635,0,567,0,0,0,
0,0,0,0,0,0,0,0,0,0,0,0,0,0,0,0,0,0,0,0,
0,0,0,551,0,635,635,0,0,0,0,0,0,635,635,0,551,0,231,0,
0,230,0,567,0,0,0,0,0,0,0,0,0,0,0,0,567,0,247,0,
0,246,0,0,0,635,635,0,0,0,0,0,0,635,635,0,0,0,0,0,
0,0,0,551,0,0,0,0,0,0,0,0,0,0,0,0,551,0,0,0,
0,0,0,567,0,635,635,0,0,0,0,0,0,635,635,0,567,0,0,0,
0,0,0,0,0,0,0,0,0,0,0,0,0,0,0,0,0,0,0,0,
662,662,662,551,0,635,635,0,0,0,0,0,0,635,635,0,551,661,661,662,
710,710,710,567,0,0,0,0,0,0,0,0,0,0,0,0,567,709,709,709,
726,726,726,0,0,635,635,0,0,0,0,0,0,635,635,0,0,725,725,725,
0,0,0,551,0,0,0,0,0,0,0,0,0,0,0,0,551,0,0,0,
0,0,0,567,0,635,635,0,0,0,0,0,0,635,635,0,567,0,0,0,
0,0,0,0,0,0,0,0,0,0,0,0,0,0,0,0,0,0,0,0,
0,0,0,551,0,635,635,0,0,0,0,0,0,635,635,0,551,0,0,0,
0,0,0,567,0,0,0,0,0,0,0,0,0,0,0,0,567,0,0,0,
0,0,0,0,0,635,635,0,0,0,0,0,0,635,635,0,0,0,0,0,
662,662,662,551,0,0,0,0,0,0,0,0,0,0,0,0,551,661,661,661,
709,710,710,567,0,635,635,0,0,0,0,0,0,635,635,0,567,709,709,709,
725,726,726,0,0,0,0,0,0,0,0,0,0,0,0,0,0,725,725,725,
0,0,0,551,0,0,0,0,0,0,0,0,0,0,0,0,551,0,0,0,
0,0,0,567,0,0,0,0,0,0,0,0,0,0,0,0,567,0,0,0,
0,0,0,0,0,0,0,0,0,0,0,0,0,0,0,0,0,0,0,0,
0,0,0,551,0,0,0,0,0,0,0,0,0,0,0,0,551,0,0,0,
0,0,0,567,0,0,0,0,0,0,0,0,0,0,0,0,567,0,0,0,
0,0,0,0,0,0,0,0,0,0,0,0,0,0,0,0,0,0,0,0,
0,0,0,551,0,0,0,0,0,0,0,0,0,0,0,0,551,0,0,0,
0,0,0,567,0,0,0,0,0,0,0,0,0,0,0,0,567,0,0,0,
0,0,0,0,0,0,0,0,0,0,0,0,0,0,0,0,0,0,0,0,
0,0,0,551,0,0,0,0,0,0,0,0,0,0,0,0,551,0,0,0,
0,0,0,567,0,0,0,0,0,0,0,0,0,0,0,0,567,0,0,0
</data>
 </layer>
 <layer name="Decor" width="20" height="43">
  <data encoding="csv">
0,0,0,0,0,0,0,0,0,0,0,0,0,0,0,0,0,0,0,0,
0,0,0,0,0,0,0,0,0,0,0,0,0,0,0,0,0,0,0,0,
0,0,0,0,0,0,0,0,0,0,0,0,0,0,0,0,0,0,0,0,
0,0,0,0,0,0,0,0,0,0,0,0,0,0,0,0,0,0,0,0,
0,0,0,0,0,0,0,0,0,0,0,0,0,0,0,0,0,0,0,0,
0,0,0,0,0,0,0,0,0,0,0,0,0,0,0,0,0,0,0,0,
0,0,0,0,0,0,0,0,0,0,0,0,0,0,0,0,0,0,0,0,
0,0,0,0,0,0,0,0,0,0,0,0,0,0,0,0,0,0,0,0,
0,0,0,0,0,0,0,0,0,0,0,0,0,0,0,0,0,0,0,0,
0,0,0,0,0,0,0,0,0,0,0,0,0,0,0,0,0,0,0,0,
0,0,0,0,0,0,0,0,0,0,0,0,0,0,0,0,0,0,0,0,
0,0,0,0,0,0,0,0,0,0,0,0,0,0,0,0,0,0,0,0,
0,0,0,0,0,0,0,0,0,0,0,0,0,0,0,0,0,0,0,0,
0,0,0,0,0,0,0,0,0,0,0,0,0,0,0,0,0,0,0,0,
0,0,0,0,0,0,0,0,0,0,0,0,0,0,0,0,0,0,0,0,
0,0,0,0,0,0,0,0,0,0,0,0,0,0,0,0,0,0,0,0,
0,0,0,0,0,0,0,0,0,0,0,0,0,0,0,0,0,0,0,0,
0,0,0,0,0,0,0,0,0,0,0,0,0,0,0,0,0,0,0,0,
0,0,0,0,0,0,0,0,0,0,0,0,0,0,0,0,0,0,0,0,
0,0,0,0,0,0,0,0,0,0,0,0,0,0,0,0,0,0,0,0,
0,0,0,0,0,0,0,0,0,0,0,0,0,0,0,0,0,0,0,0,
0,0,0,0,0,0,0,0,0,0,0,0,0,0,0,0,0,0,0,0,
0,0,0,0,0,0,0,0,0,0,0,0,0,0,0,0,0,0,0,0,
0,0,0,0,0,0,0,0,0,0,0,0,0,0,0,0,0,0,0,0,
0,0,0,0,0,0,0,0,0,0,0,0,0,0,0,0,0,0,0,0,
0,0,0,0,0,0,0,0,0,0,0,0,0,0,0,0,0,0,0,0,
0,0,0,0,0,0,0,0,0,0,0,0,0,0,0,0,0,0,0,0,
0,0,0,0,0,0,0,0,0,0,0,0,0,0,0,0,0,0,0,0,
0,0,0,0,0,0,0,0,0,0,0,0,0,0,0,0,0,0,0,0,
0,0,0,0,0,0,0,0,0,0,0,0,0,0,0,0,0,0,0,0,
0,0,0,0,0,0,0,0,0,0,0,0,0,0,0,0,0,0,0,0,
0,0,0,0,0,0,0,0,0,0,0,0,0,0,0,0,0,0,0,0,
0,0,0,0,0,0,0,0,0,0,0,0,0,0,0,0,0,0,0,0,
0,0,0,0,0,0,0,0,0,0,0,0,0,0,0,0,0,0,0,0,
0,0,0,0,0,0,0,0,0,0,0,0,0,0,0,0,0,0,0,0,
0,0,0,0,0,0,0,0,0,0,0,0,0,0,0,0,0,0,0,0,
0,0,0,0,0,0,0,0,0,0,0,0,0,0,0,0,0,0,0,0,
0,0,0,0,0,0,0,0,0,0,0,0,0,0,0,0,0,0,0,0,
0,0,0,0,0,0,0,0,0,0,0,0,0,0,0,0,0,0,0,0,
0,0,0,0,0,0,0,0,0,0,0,0,0,0,0,0,0,0,0,0,
0,0,0,0,0,0,0,0,0,0,0,0,0,0,0,0,0,0,0,0,
0,0,0,0,0,0,0,0,0,0,0,0,0,0,0,0,0,0,0,0,
0,0,0,0,0,0,0,0,0,0,0,0,0,0,0,0,0,0,0,0
</data>
 </layer>
 <layer name="Collisions" width="20" height="43" opacity="0.42">
  <properties>
   <property name="collision" value="full"/>
  </properties>
  <data encoding="csv">
0,0,0,1,0,0,1,0,0,0,0,0,1,0,0,0,1,0,0,0,
0,0,0,0,0,0,1,0,0,0,0,0,1,0,0,0,0,0,0,0,
1,1,1,1,0,0,0,0,0,0,0,0,0,0,0,0,1,1,1,1,
1,1,1,1,0,0,0,1,1,1,1,1,0,0,0,0,1,1,1,1,
1,1,1,0,0,0,0,1,1,1,1,1,0,0,0,0,0,1,1,1,
0,1,0,1,0,0,0,0,0,0,0,0,0,0,0,0,1,0,0,0,
0,0,0,1,0,0,0,0,0,0,0,0,0,0,0,0,1,0,0,0,
0,0,0,0,0,0,0,0,0,0,0,0,0,0,0,0,0,0,0,0,
1,1,1,1,0,0,0,0,0,0,0,0,0,0,0,0,1,1,1,1,
1,1,1,1,0,0,0,0,0,0,0,0,0,0,0,0,1,1,1,1,
1,1,1,0,0,0,0,0,0,0,0,0,0,0,0,0,0,1,1,1,
0,1,0,1,0,0,0,0,0,0,0,0,0,0,0,0,1,0,1,0,
0,0,0,1,0,1,1,0,0,0,0,0,0,1,1,0,1,0,0,0,
0,0,0,0,0,0,0,0,0,0,0,0,0,0,0,0,0,0,0,0,
0,0,0,1,0,1,1,0,0,0,0,0,0,1,1,0,1,0,1,0,
0,1,0,1,0,0,0,0,0,0,0,0,0,0,0,0,1,0,1,0,
0,1,0,0,0,1,1,0,0,0,0,0,0,1,1,0,0,0,0,0,
0,0,0,1,0,0,0,0,0,0,0,0,0,0,0,0,1,0,0,0,
0,0,0,1,0,1,1,0,0,0,0,0,0,1,1,0,1,0,0,0,
0,0,0,0,0,0,0,0,0,0,0,0,0,0,0,0,0,0,0,0,
1,1,1,1,0,1,1,0,0,0,0,0,0,1,1,0,1,1,1,1,
1,1,1,1,0,0,0,0,0,0,0,0,0,0,0,0,1,1,1,1,
1,1,1,0,0,1,1,0,0,0,0,0,0,1,1,0,0,1,1,1,
0,1,0,1,0,0,0,0,0,0,0,0,0,0,0,0,1,0,1,0,
0,0,0,1,0,1,1,0,0,0,0,0,0,1,1,0,1,0,0,0,
0,0,0,0,0,0,0,0,0,0,0,0,0,0,0,0,0,0,0,0,
0,0,0,1,0,1,1,0,0,0,0,0,0,1,1,0,1,0,0,0,
0,0,0,1,0,0,0,0,0,0,0,0,0,0,0,0,1,0,0,0,
0,0,0,0,0,1,1,0,0,0,0,0,0,1,1,0,0,0,0,0,
1,1,1,1,0,0,0,0,0,0,0,0,0,0,0,0,1,1,1,1,
1,1,1,1,0,1,1,0,0,0,0,0,0,1,1,0,1,1,1,1,
1,1,1,0,0,0,0,0,0,0,0,0,0,0,0,0,0,1,1,1,
0,0,0,1,0,0,0,0,0,0,0,0,0,0,0,0,1,0,0,0,
0,0,0,1,0,0,0,0,0,0,0,0,0,0,0,0,1,0,0,0,
0,0,0,0,0,0,0,0,0,0,0,0,0,0,0,0,0,0,0,0,
0,0,0,1,0,0,0,0,0,0,0,0,0,0,0,0,1,0,0,0,
0,0,0,1,0,0,0,0,0,0,0,0,0,0,0,0,1,0,0,0,
0,0,0,0,0,0,0,0,0,0,0,0,0,0,0,0,0,0,0,0,
0,0,0,1,0,0,0,0,0,0,0,0,0,0,0,0,1,0,0,0,
0,0,0,1,0,0,0,0,0,0,0,0,0,0,0,0,1,0,0,0,
0,0,0,0,0,0,0,0,0,0,0,0,0,0,0,0,0,0,0,0,
0,0,0,1,0,0,0,0,0,0,0,0,0,0,0,0,1,0,0,0,
0,0,0,1,0,0,0,0,0,0,0,0,0,0,0,0,1,0,0,0
</data>
 </layer>
 <objectgroup name="Object Layer 1">
  <object id="1" x="915.333" y="242" width="42" height="43.3333">
   <properties>
    <property name="eventId" value="002"/>
   </properties>
  </object>
 </objectgroup>
</map>
