<?xml version="1.0" encoding="UTF-8"?>
<map version="1.0" tiledversion="1.0.3" orientation="orthogonal" renderorder="right-down" width="35" height="25" tilewidth="48" tileheight="48" nextobjectid="1">
 <tileset firstgid="1" name="TileCollision_48x48" tilewidth="48" tileheight="48" tilecount="20" columns="5">
  <image source="../img/tilesets/TileCollision_48x48.png" width="240" height="192"/>
 </tileset>
 <tileset firstgid="21" name="OutsideTilesNew" tilewidth="48" tileheight="48" tilecount="256" columns="16">
  <image source="../img/tilesets/OutsideTilesNew.png" width="768" height="768"/>
 </tileset>
 <tileset firstgid="277" name="Grass" tilewidth="48" tileheight="48" tilecount="18" columns="6">
  <image source="../img/tilesets/Grass.png" width="288" height="144"/>
  <terraintypes>
   <terrain name="grass" tile="0"/>
  </terraintypes>
  <tile id="0" terrain="0,0,0,"/>
  <tile id="1" terrain="0,0,,"/>
  <tile id="2" terrain="0,0,,0"/>
  <tile id="3" terrain=",,,0"/>
  <tile id="4" terrain=",,0,0"/>
  <tile id="5" terrain=",,0,"/>
  <tile id="6" terrain="0,,0,"/>
  <tile id="8" terrain=",0,,0"/>
  <tile id="9" terrain=",0,,0"/>
  <tile id="10" terrain="0,0,0,0"/>
  <tile id="11" terrain="0,,0,"/>
  <tile id="12" terrain="0,,0,0"/>
  <tile id="13" terrain=",,0,0"/>
  <tile id="14" terrain=",0,0,0"/>
  <tile id="15" terrain=",0,,"/>
  <tile id="16" terrain="0,0,,"/>
  <tile id="17" terrain="0,,,"/>
 </tileset>
 <tileset firstgid="295" name="Slums Tilesets" tilewidth="48" tileheight="48" tilecount="64" columns="8">
  <image source="../img/tilesets/Slums Tilesets.png" width="384" height="384"/>
 </tileset>
 <tileset firstgid="359" name="Dungeon_A4" tilewidth="48" tileheight="48" tilecount="240" columns="16">
  <image source="../img/tilesets/Dungeon_A4.png" width="768" height="720"/>
 </tileset>
 <tileset firstgid="599" name="Dungeon_A2" tilewidth="48" tileheight="48" tilecount="192" columns="16">
  <image source="../img/tilesets/Dungeon_A2.png" width="768" height="576"/>
 </tileset>
 <imagelayer name="Image Layer 1" opacity="0.29">
  <image source="../img/parallaxes/OuskirtsScreenshot.png" width="1680" height="1200"/>
 </imagelayer>
 <layer name="floor" width="35" height="25">
  <data encoding="csv">
0,0,0,0,0,0,0,0,0,0,0,0,0,0,0,0,0,0,0,0,280,291,287,283,0,747,747,747,747,747,747,748,748,0,0,
0,0,0,0,0,0,0,0,0,0,0,0,0,0,0,0,0,0,0,280,291,287,287,288,0,747,763,763,763,747,748,748,764,0,0,
0,0,0,0,0,0,0,0,0,0,0,0,0,0,0,0,0,0,0,286,287,287,287,283,0,747,779,779,747,748,748,764,780,0,0,
0,0,0,0,0,0,0,0,0,0,0,0,0,0,0,0,0,0,0,286,287,287,287,283,0,763,779,780,747,747,747,748,780,0,0,
0,0,0,0,0,0,0,0,0,0,0,0,0,0,0,0,0,0,0,286,287,287,287,288,0,779,779,780,747,763,747,747,748,0,0,
0,0,0,0,0,0,0,0,0,0,0,0,0,0,0,0,0,0,0,285,287,287,287,288,0,779,780,764,763,779,747,748,748,0,0,
0,0,0,0,0,0,0,0,0,0,0,0,0,0,0,0,0,0,0,286,287,287,287,283,0,779,747,748,748,748,748,748,764,0,0,
0,0,0,0,0,0,0,0,0,0,0,0,0,0,0,0,0,0,0,292,279,287,287,283,0,747,748,748,764,764,764,764,780,0,0,
290,281,290,290,290,281,281,290,281,281,281,290,281,281,281,281,290,290,281,282,292,293,278,294,0,747,748,764,747,748,748,748,748,0,0,
287,287,287,287,287,287,287,287,287,287,287,287,287,287,287,287,287,287,287,289,290,281,290,290,290,747,748,747,747,748,764,764,764,290,290,
287,287,287,287,287,287,287,287,287,287,287,287,287,287,287,287,287,287,287,287,287,287,287,287,287,747,748,747,747,747,748,780,780,287,287,
301,301,301,301,301,301,301,301,301,301,301,301,301,301,301,301,301,301,301,301,301,301,301,301,277,747,747,747,748,747,748,779,780,287,287,
301,301,301,301,301,301,301,301,301,301,301,301,301,301,301,301,301,301,301,301,301,301,301,301,288,747,747,747,748,747,748,779,780,287,287,
301,301,301,301,301,301,301,301,301,301,301,301,301,301,301,301,301,301,301,301,301,301,301,301,288,747,747,747,747,747,748,779,780,287,287,
287,287,287,287,287,287,287,287,287,287,287,287,287,287,287,287,287,287,287,287,277,293,293,278,294,747,747,747,763,747,748,779,780,278,278,
287,287,287,287,287,287,287,287,287,287,287,287,287,287,287,287,287,287,287,287,289,281,281,282,0,747,747,763,779,747,748,779,780,0,0,
278,278,293,278,293,278,293,278,278,278,278,278,293,293,278,278,278,293,278,279,287,287,287,288,0,747,747,779,779,747,748,779,780,0,0,
0,0,0,0,0,0,0,0,0,0,0,0,0,0,0,0,0,0,0,292,279,287,287,288,0,747,747,748,747,747,747,748,780,0,0,
0,0,0,0,0,0,0,0,0,0,0,0,0,0,0,0,0,0,0,0,285,287,287,288,0,747,747,748,747,763,747,748,780,0,0,
0,0,0,0,0,0,0,0,0,0,0,0,0,0,0,0,0,0,0,0,285,287,287,288,0,747,747,747,747,779,747,748,780,0,0,
0,0,0,0,0,0,0,0,0,0,0,0,0,0,0,0,0,0,0,0,286,287,287,283,0,747,747,763,747,779,747,748,780,0,0,
0,0,0,0,0,0,0,0,0,0,0,0,0,0,0,0,0,0,0,0,286,287,287,288,0,747,763,779,763,779,747,748,780,0,0,
0,0,0,0,0,0,0,0,0,0,0,0,0,0,0,0,0,0,0,0,285,287,287,283,0,747,779,779,779,779,747,747,748,0,0,
0,0,0,0,0,0,0,0,0,0,0,0,0,0,0,0,0,0,0,0,292,278,279,288,0,747,747,779,780,747,763,763,764,0,0,
0,0,0,0,0,0,0,0,0,0,0,0,0,0,0,0,0,0,0,0,0,0,292,294,0,763,763,763,763,763,779,779,780,0,0
</data>
 </layer>
 <layer name="walls" width="35" height="25">
  <data encoding="csv">
0,0,0,0,0,0,0,0,0,0,0,0,0,0,0,0,0,0,0,0,0,0,0,449,450,0,0,0,0,0,0,0,0,449,450,
0,0,0,0,0,0,0,0,0,0,0,0,0,0,0,0,0,0,0,0,0,0,0,449,450,0,0,0,0,0,0,0,0,449,450,
0,0,0,0,0,0,0,0,0,0,0,0,0,0,0,0,0,0,0,0,0,0,0,449,450,0,0,0,0,0,0,0,0,449,450,
0,0,0,0,0,0,0,0,0,0,0,0,0,0,0,0,0,0,0,0,0,0,0,449,450,0,0,0,0,0,0,0,0,449,450,
0,0,0,0,0,0,0,0,0,0,0,0,0,0,0,0,0,0,0,0,0,0,0,449,450,0,0,0,0,0,0,0,0,449,450,
0,0,0,0,0,0,0,0,0,0,0,0,0,0,0,0,0,0,0,0,0,0,0,449,450,0,0,0,0,0,0,0,0,449,450,
0,0,0,0,0,0,0,0,0,0,0,0,0,0,0,0,0,0,0,0,0,0,0,449,450,0,0,0,0,0,0,0,0,449,450,
0,0,0,0,0,0,0,0,0,0,0,0,0,0,0,0,0,0,0,0,0,0,0,449,450,0,0,0,0,0,0,0,0,449,450,
0,0,0,0,0,0,0,0,0,0,0,0,0,0,0,0,0,0,0,0,449,450,450,449,450,0,0,0,0,0,0,0,0,449,450,
0,0,0,0,0,0,0,0,0,0,0,0,0,0,0,0,0,0,0,0,498,498,498,498,498,0,0,0,0,0,0,0,0,498,498,
0,0,0,0,0,0,0,0,0,0,0,0,0,0,0,0,0,0,0,0,0,0,0,0,0,0,0,0,0,0,0,0,0,0,0,
0,0,0,0,0,0,0,0,0,0,0,0,0,0,0,0,0,0,0,0,0,0,0,0,0,0,0,0,0,0,0,0,0,0,0,
0,0,0,0,0,0,0,0,0,0,0,0,0,0,0,0,0,0,0,0,0,0,0,0,0,0,0,0,0,0,0,0,0,0,0,
0,0,0,0,0,0,0,0,0,0,0,0,0,0,0,0,0,0,0,0,0,0,0,0,0,0,0,0,0,0,0,0,0,0,0,
0,0,0,0,0,0,0,0,0,0,0,0,0,0,0,0,0,0,0,0,449,450,450,449,450,0,0,0,0,0,0,0,0,449,450,
0,0,0,0,0,0,0,0,0,0,0,0,0,0,0,0,0,0,0,0,497,498,498,449,450,0,0,0,0,0,0,0,0,449,450,
0,0,0,0,0,0,0,0,0,0,0,0,0,0,0,0,0,0,0,0,0,0,0,449,450,0,0,0,0,0,0,0,0,449,450,
0,0,0,0,0,0,0,0,0,0,0,0,0,0,0,0,0,0,0,0,0,0,0,449,450,0,0,0,0,0,0,0,0,449,450,
0,0,0,0,0,0,0,0,0,0,0,0,0,0,0,0,0,0,0,0,0,0,0,449,450,0,0,0,0,0,0,0,0,449,450,
0,0,0,0,0,0,0,0,0,0,0,0,0,0,0,0,0,0,0,0,0,0,0,449,450,0,0,0,0,0,0,0,0,449,450,
0,0,0,0,0,0,0,0,0,0,0,0,0,0,0,0,0,0,0,0,0,0,0,449,450,0,0,0,0,0,0,0,0,449,450,
0,0,0,0,0,0,0,0,0,0,0,0,0,0,0,0,0,0,0,0,0,0,0,449,450,0,0,0,0,0,0,0,0,449,450,
0,0,0,0,0,0,0,0,0,0,0,0,0,0,0,0,0,0,0,0,0,0,0,449,450,0,0,0,0,0,0,0,0,449,450,
0,0,0,0,0,0,0,0,0,0,0,0,0,0,0,0,0,0,0,0,0,0,0,449,450,0,0,0,0,0,0,0,0,449,450,
0,0,0,0,0,0,0,0,0,0,0,0,0,0,0,0,0,0,0,0,0,0,0,0,0,0,0,0,0,0,0,0,0,0,0
</data>
 </layer>
 <layer name="trees" width="35" height="25">
  <data encoding="csv">
248,247,248,247,248,247,248,247,248,247,248,247,248,247,248,247,248,247,248,247,248,246,0,0,0,0,0,0,0,0,0,0,0,0,0,
264,263,264,263,264,263,264,263,264,263,264,263,264,263,264,263,264,263,264,263,264,262,0,0,0,0,0,0,0,0,0,0,0,0,0,
248,247,248,247,248,247,248,247,248,247,248,247,248,247,248,247,248,247,248,247,248,246,0,0,0,0,0,0,0,0,0,0,0,0,0,
264,263,264,263,264,263,264,263,264,263,264,263,264,263,264,263,264,263,264,263,264,262,0,0,0,0,0,0,0,0,0,0,0,0,0,
248,247,248,247,248,247,248,247,248,247,248,247,248,247,248,247,248,247,248,247,248,246,0,0,0,0,0,0,0,0,0,0,0,0,0,
264,263,264,263,264,263,264,263,264,263,264,263,264,263,264,263,264,263,264,263,264,262,0,0,0,0,0,0,0,0,0,0,0,0,0,
248,247,248,247,248,247,248,247,248,247,248,247,248,247,248,247,248,247,248,247,248,246,0,0,0,0,0,0,0,0,0,0,0,0,0,
247,248,247,248,247,248,247,248,247,248,247,248,247,248,247,248,247,248,247,248,264,262,0,0,0,0,0,0,0,0,0,0,0,0,0,
263,264,263,264,263,264,263,264,263,264,263,264,263,264,263,264,263,264,263,264,0,0,0,0,0,0,0,0,0,0,0,0,0,0,0,
261,262,261,262,261,262,261,262,261,262,261,262,261,262,261,262,261,262,261,262,0,0,0,0,0,0,0,0,0,0,0,0,0,0,0,
0,0,0,0,0,0,0,0,0,0,0,0,0,0,0,0,0,0,0,0,0,0,0,0,0,0,0,0,0,0,0,0,0,0,0,
0,0,0,0,0,0,0,0,0,0,0,0,0,0,0,0,0,0,0,0,0,0,0,0,0,0,0,0,0,0,0,0,0,0,0,
0,0,0,0,0,0,0,0,0,0,0,0,0,0,0,0,0,0,0,0,0,0,0,0,0,0,0,0,0,0,0,0,0,0,0,
0,0,0,0,0,0,0,0,0,0,0,0,0,0,0,0,0,0,0,0,0,0,0,0,0,0,0,0,0,0,0,0,0,0,0,
245,246,245,246,245,246,245,246,245,246,245,246,245,246,245,246,245,246,245,246,0,0,0,0,0,0,0,0,0,0,0,0,0,0,0,
247,248,247,248,247,248,247,248,247,248,247,248,247,248,247,248,247,248,247,248,246,0,0,0,0,0,0,0,0,0,0,0,0,0,0,
263,264,263,264,263,264,263,264,263,264,263,264,263,264,263,264,263,264,263,264,262,0,0,0,0,0,0,0,0,0,0,0,0,0,0,
247,248,247,248,247,248,247,248,247,248,247,248,247,248,247,248,247,248,247,248,247,248,246,0,0,0,0,0,0,0,0,0,0,0,0,
263,264,263,264,263,264,263,264,263,264,263,264,263,264,263,264,263,264,263,264,263,264,262,0,0,0,0,0,0,0,0,0,0,0,0,
247,248,247,248,247,248,247,248,247,248,247,248,247,248,247,248,247,248,247,248,247,248,246,0,0,0,0,0,0,0,0,0,0,0,0,
263,264,263,264,263,264,263,264,263,264,263,264,263,264,263,264,263,264,263,264,263,264,262,0,0,0,0,0,0,0,0,0,0,0,0,
248,247,248,248,247,248,247,248,247,248,247,248,247,248,247,248,247,248,247,248,247,248,246,0,0,0,0,0,0,0,0,0,0,0,0,
264,263,264,264,263,264,263,264,263,264,263,264,263,264,263,264,263,264,263,264,263,264,262,0,0,0,0,0,0,0,0,0,0,0,0,
247,248,247,248,247,248,247,248,247,248,247,248,247,248,247,248,247,248,247,248,247,248,246,0,0,0,0,0,0,0,0,0,0,0,0,
263,264,263,264,263,264,263,264,263,264,263,264,263,264,263,264,263,264,263,264,263,264,262,0,0,0,0,0,0,0,0,0,0,0,0
</data>
 </layer>
 <layer name="bridge" width="35" height="25">
  <data encoding="csv">
0,0,0,0,0,0,0,0,0,0,0,0,0,0,0,0,0,0,0,0,0,0,0,0,0,0,0,0,0,0,0,0,0,0,0,
0,0,0,0,0,0,0,0,0,0,0,0,0,0,0,0,0,0,0,0,0,0,0,0,0,0,0,0,0,0,0,0,0,0,0,
0,0,0,0,0,0,0,0,0,0,0,0,0,0,0,0,0,0,0,0,0,0,0,0,0,0,0,0,0,0,0,0,0,0,0,
0,0,0,0,0,0,0,0,0,0,0,0,0,0,0,0,0,0,0,0,0,0,0,0,0,0,0,0,0,0,0,0,0,0,0,
0,0,0,0,0,0,0,0,0,0,0,0,0,0,0,0,0,0,0,0,0,0,0,0,0,0,0,0,0,0,0,0,0,0,0,
0,0,0,0,0,0,0,0,0,0,0,0,0,0,0,0,0,0,0,0,0,0,0,0,0,0,0,0,0,0,0,0,0,0,0,
0,0,0,0,0,0,0,0,0,0,0,0,0,0,0,0,0,0,0,0,0,0,0,0,0,0,0,0,0,0,0,0,0,0,0,
0,0,0,0,0,0,0,0,0,0,0,0,0,0,0,0,0,0,0,0,0,0,0,0,0,0,0,0,0,0,0,0,0,0,0,
0,0,0,0,0,0,0,0,0,0,0,0,0,0,0,0,0,0,0,0,0,0,0,0,0,0,0,0,0,0,0,0,0,0,0,
0,0,0,0,0,0,0,0,0,0,0,0,0,0,0,0,0,0,0,0,0,0,0,0,0,0,0,0,0,0,0,0,0,0,0,
0,0,0,0,0,0,0,0,0,0,0,0,0,0,0,0,0,0,0,0,0,0,0,0,0,0,0,0,0,0,0,0,0,0,0,
0,0,0,0,0,0,0,0,0,0,0,0,0,0,0,0,0,0,0,0,0,0,0,0,37,54,54,54,54,54,54,54,54,40,0,
0,0,0,0,0,0,0,0,0,0,0,0,0,0,0,0,0,0,0,0,0,0,0,0,53,54,54,54,54,54,54,54,54,56,0,
0,0,0,0,0,0,0,0,0,0,0,0,0,0,0,0,0,0,0,0,0,0,0,0,69,54,54,54,54,54,54,54,54,72,0,
0,0,0,0,0,0,0,0,0,0,0,0,0,0,0,0,0,0,0,0,0,0,0,0,0,70,0,0,0,0,0,0,71,0,0,
0,0,0,0,0,0,0,0,0,0,0,0,0,0,0,0,0,0,0,0,0,0,0,0,0,0,0,0,0,0,0,0,0,0,0,
0,0,0,0,0,0,0,0,0,0,0,0,0,0,0,0,0,0,0,0,0,0,0,0,0,0,0,0,0,0,0,0,0,0,0,
0,0,0,0,0,0,0,0,0,0,0,0,0,0,0,0,0,0,0,0,0,0,0,0,0,0,0,0,0,0,0,0,0,0,0,
0,0,0,0,0,0,0,0,0,0,0,0,0,0,0,0,0,0,0,0,0,0,0,0,0,0,0,0,0,0,0,0,0,0,0,
0,0,0,0,0,0,0,0,0,0,0,0,0,0,0,0,0,0,0,0,0,0,0,0,0,0,0,0,0,0,0,0,0,0,0,
0,0,0,0,0,0,0,0,0,0,0,0,0,0,0,0,0,0,0,0,0,0,0,0,0,0,0,0,0,0,0,0,0,0,0,
0,0,0,0,0,0,0,0,0,0,0,0,0,0,0,0,0,0,0,0,0,0,0,0,0,0,0,0,0,0,0,0,0,0,0,
0,0,0,0,0,0,0,0,0,0,0,0,0,0,0,0,0,0,0,0,0,0,0,0,0,0,0,0,0,0,0,0,0,0,0,
0,0,0,0,0,0,0,0,0,0,0,0,0,0,0,0,0,0,0,0,0,0,0,0,0,0,0,0,0,0,0,0,0,0,0,
0,0,0,0,0,0,0,0,0,0,0,0,0,0,0,0,0,0,0,0,0,0,0,0,0,0,0,0,0,0,0,0,0,0,0
</data>
 </layer>
 <layer name="collisions" width="35" height="25" visible="0">
  <properties>
   <property name="collision" value="full"/>
  </properties>
  <data encoding="csv">
0,0,0,0,0,0,0,0,0,0,0,0,0,0,0,0,0,0,0,0,0,0,0,0,0,1,0,0,0,0,0,0,1,0,0,
0,0,0,0,0,0,0,0,0,0,0,0,0,0,0,0,0,0,0,0,0,0,0,0,0,1,1,1,1,1,1,1,1,0,0,
0,0,0,0,0,0,0,0,0,0,0,0,0,0,0,0,0,0,0,0,0,0,0,0,0,1,0,0,0,0,0,0,1,0,0,
0,0,0,0,0,0,0,0,0,0,0,0,0,0,0,0,0,0,0,0,0,0,0,0,0,1,0,0,0,0,0,0,1,0,0,
0,0,0,0,0,0,0,0,0,0,0,0,0,0,0,0,0,0,0,0,0,0,0,0,0,1,0,0,0,0,0,0,1,0,0,
0,0,0,0,0,0,0,0,0,0,0,0,0,0,0,0,0,0,0,0,0,0,0,0,0,1,1,0,0,0,0,0,1,0,0,
0,0,0,0,0,0,0,0,0,0,0,0,0,0,0,0,0,0,0,0,0,0,0,0,0,1,1,0,0,0,0,0,1,0,0,
0,0,0,0,0,0,0,0,0,0,0,0,0,0,0,0,0,0,0,0,0,0,0,0,0,1,1,0,0,0,0,0,1,0,0,
0,0,0,0,0,0,0,0,0,0,0,0,0,0,0,0,0,0,0,0,0,0,0,0,0,1,0,0,0,0,0,0,1,0,0,
1,1,1,1,1,1,1,1,1,1,1,1,1,1,1,1,1,1,1,1,1,1,1,1,1,1,0,0,0,0,0,0,1,1,1,
0,0,0,0,0,0,0,0,0,0,0,0,0,0,0,0,0,0,0,0,0,0,0,0,0,1,1,1,1,1,1,1,1,0,0,
0,0,0,0,0,0,0,0,0,0,0,0,0,0,0,0,0,0,0,0,0,0,0,0,0,0,0,0,0,0,0,0,0,0,0,
0,0,0,0,0,0,0,0,0,0,0,0,0,0,0,0,0,0,0,0,0,0,0,0,0,0,0,0,0,0,0,0,0,0,0,
0,0,0,0,0,0,0,0,0,0,0,0,0,0,0,0,0,0,0,0,0,0,0,0,0,0,0,0,0,0,0,0,0,0,0,
1,1,1,1,1,1,1,1,1,1,1,1,1,1,1,1,1,1,1,1,1,1,1,1,1,1,1,1,1,1,1,1,1,1,1,
1,1,1,1,1,1,1,1,1,1,1,1,1,1,1,1,1,1,1,1,1,1,1,1,1,1,1,0,0,0,0,0,1,0,0,
0,0,0,0,0,0,0,0,0,0,0,0,0,0,0,0,0,0,0,0,0,0,0,0,0,1,1,0,0,0,0,0,1,0,0,
0,0,0,0,0,0,0,0,0,0,0,0,0,0,0,0,0,0,0,0,0,0,0,0,0,1,0,0,0,0,0,0,1,0,0,
0,0,0,0,0,0,0,0,0,0,0,0,0,0,0,0,0,0,0,0,0,0,0,0,0,1,0,0,0,0,0,0,1,0,0,
0,0,0,0,0,0,0,0,0,0,0,0,0,0,0,0,0,0,0,0,0,0,0,0,0,1,0,0,0,0,0,0,1,0,0,
0,0,0,0,0,0,0,0,0,0,0,0,0,0,0,0,0,0,0,0,0,0,0,0,0,1,0,0,0,0,0,1,1,0,0,
0,0,0,0,0,0,0,0,0,0,0,0,0,0,0,0,0,0,0,0,0,0,0,0,0,1,0,0,0,0,0,1,1,0,0,
0,0,0,0,0,0,0,0,0,0,0,0,0,0,0,0,0,0,0,0,0,0,0,0,0,1,0,0,0,0,0,1,1,0,0,
0,0,0,0,0,0,0,0,0,0,0,0,0,0,0,0,0,0,0,0,0,0,0,0,0,1,0,0,0,0,0,1,1,0,0,
0,0,0,0,0,0,0,0,0,0,0,0,0,0,0,0,0,0,0,0,0,0,0,0,0,1,1,1,1,1,1,1,1,0,0
</data>
 </layer>
</map>
