<?xml version="1.0" encoding="UTF-8"?>
<map version="1.0" tiledversion="1.0.3" orientation="orthogonal" renderorder="right-down" width="30" height="35" tilewidth="48" tileheight="48" nextobjectid="12">
 <tileset firstgid="1" name="Sewer" tilewidth="48" tileheight="48" tilecount="100" columns="10">
  <image source="../img/tilesets/Sewer.png" width="480" height="480"/>
 </tileset>
 <tileset firstgid="101" name="Dungeon_A4" tilewidth="48" tileheight="48" tilecount="240" columns="16">
  <image source="../img/tilesets/Dungeon_A4.png" width="768" height="720"/>
 </tileset>
 <tileset firstgid="341" name="Dungeon_A2" tilewidth="48" tileheight="48" tilecount="192" columns="16">
  <image source="../img/tilesets/Dungeon_A2.png" width="768" height="576"/>
 </tileset>
 <tileset firstgid="533" name="TileCollision_48x48" tilewidth="48" tileheight="48" tilecount="20" columns="5">
  <image source="../img/tilesets/TileCollision_48x48.png" width="240" height="192"/>
 </tileset>
 <tileset firstgid="553" name="Inside_B" tilewidth="48" tileheight="48" tilecount="256" columns="16">
  <image source="../img/tilesets/Inside_B.png" width="768" height="768"/>
 </tileset>
 <layer name="Floor" width="30" height="35">
  <data encoding="csv">
12,12,12,12,12,12,12,12,12,12,12,12,12,12,12,12,12,12,12,12,12,12,12,12,12,12,12,12,12,12,
12,12,12,12,12,12,12,12,12,12,12,12,12,12,12,12,12,12,12,12,12,12,12,12,12,12,12,12,12,12,
12,12,12,12,12,12,12,12,12,12,12,12,12,12,12,12,12,12,12,12,12,12,12,12,12,12,12,12,12,12,
12,12,12,12,12,12,12,12,12,12,12,12,12,12,12,12,12,12,12,12,12,12,12,12,12,12,12,12,12,12,
12,12,12,12,12,12,12,12,12,12,12,12,12,12,12,12,12,12,12,12,12,12,12,12,12,12,12,12,12,12,
12,12,12,12,12,12,12,12,12,12,12,12,12,12,12,12,12,12,12,12,12,12,12,12,12,12,12,12,12,12,
12,12,12,12,12,12,12,12,12,12,12,12,12,12,12,12,12,12,12,12,12,12,12,12,12,12,12,12,12,12,
12,12,12,12,12,12,12,12,12,12,12,12,12,12,12,12,12,12,12,12,12,12,12,12,12,12,12,12,12,12,
12,12,12,12,12,12,12,12,12,12,12,12,12,12,12,12,12,12,12,12,12,12,12,12,12,12,12,12,12,12,
12,12,12,12,12,12,12,12,12,12,12,12,12,12,12,12,12,12,12,12,12,12,12,12,12,12,12,12,12,12,
12,12,12,12,12,12,12,12,12,12,12,12,12,12,12,12,12,12,12,12,12,12,12,12,12,12,12,12,12,12,
12,12,12,12,12,12,12,12,12,12,12,12,12,12,12,12,12,12,12,12,12,12,12,12,12,12,12,12,12,12,
12,12,12,12,12,12,12,12,12,12,12,12,12,12,12,12,12,12,12,12,12,12,12,12,12,12,12,12,12,12,
12,12,12,12,12,12,12,12,12,12,12,12,12,12,12,12,12,12,12,12,12,12,12,12,12,12,12,12,12,12,
12,12,12,12,12,12,12,12,12,12,12,12,12,12,12,12,12,12,12,12,12,12,12,12,12,12,12,12,12,12,
12,12,12,12,12,12,12,12,12,12,12,12,12,12,12,12,12,12,12,12,12,12,12,12,12,12,12,12,12,12,
12,12,12,12,12,12,12,12,12,12,12,12,12,12,12,12,12,12,12,12,12,12,12,12,12,12,12,12,12,12,
12,12,12,12,12,12,12,12,12,12,12,12,12,12,12,12,12,12,12,12,12,12,12,12,12,12,12,12,12,12,
12,12,12,12,12,12,12,12,12,12,12,12,12,12,12,12,12,12,12,12,12,12,12,12,12,12,12,12,12,12,
12,12,12,12,12,12,12,12,12,12,12,12,12,12,12,12,12,12,12,12,12,12,12,12,12,12,12,12,12,12,
12,12,12,12,12,12,12,12,12,12,12,12,12,12,12,12,12,12,12,12,12,12,12,12,12,12,12,12,12,12,
12,12,12,12,12,12,12,12,12,12,12,12,12,12,12,12,12,12,12,12,12,12,12,12,12,12,12,12,12,12,
12,12,12,12,12,12,12,12,12,12,12,12,12,12,12,12,12,12,12,12,12,12,12,12,12,12,12,12,12,12,
12,12,12,12,12,12,12,12,12,12,12,12,12,12,12,12,12,12,12,12,12,12,12,12,12,12,12,12,12,12,
12,12,12,12,12,12,12,12,12,12,12,12,12,12,12,12,12,12,12,12,12,12,12,12,12,12,12,12,12,12,
12,12,12,12,12,12,12,12,12,12,12,12,12,12,12,12,12,12,12,12,12,12,12,12,12,12,12,12,12,12,
12,12,12,12,12,12,12,12,12,12,12,12,12,12,12,12,12,12,12,12,12,12,12,12,12,12,12,12,12,12,
12,12,12,12,12,12,12,12,12,12,12,12,12,12,12,12,12,12,12,12,12,12,12,12,12,12,12,12,12,12,
12,12,12,12,12,12,12,12,12,12,12,12,12,12,12,12,12,12,12,12,12,12,12,12,12,12,12,12,12,12,
12,12,12,12,12,12,12,12,12,12,12,12,12,12,12,12,12,12,12,12,12,12,12,12,12,12,12,12,12,12,
12,12,12,12,12,12,12,12,12,12,12,12,12,12,12,12,12,12,12,12,12,12,12,12,12,12,12,12,12,12,
12,12,12,12,12,12,12,12,12,12,12,12,12,12,12,12,12,12,12,12,12,12,12,12,12,12,12,12,12,12,
12,12,12,12,12,12,12,12,12,12,12,12,12,12,12,12,12,12,12,12,12,12,12,12,12,12,12,12,12,12,
12,12,12,12,12,12,12,12,12,12,12,12,12,12,12,12,12,12,12,12,12,12,12,12,12,12,12,12,12,12,
12,12,12,12,12,12,12,12,12,12,12,12,12,12,12,12,12,12,12,12,12,12,12,12,12,12,12,12,12,12
</data>
 </layer>
 <layer name="Walls" width="30" height="35">
  <data encoding="csv">
277,277,277,277,277,277,277,277,0,0,0,0,558,0,558,0,0,0,0,0,277,277,277,277,277,277,277,277,277,277,
277,277,277,277,277,277,277,277,0,0,0,0,574,0,574,0,0,0,0,0,277,277,277,277,277,277,277,277,277,277,
277,277,277,277,277,277,277,277,0,0,0,0,590,0,590,0,0,0,0,0,277,277,277,277,277,277,277,277,277,277,
277,277,277,277,277,277,277,277,0,0,0,0,0,0,0,0,0,0,0,0,277,277,277,277,277,277,277,277,277,277,
277,277,277,277,277,277,277,277,0,0,0,0,0,0,0,0,0,0,0,0,277,277,277,277,277,277,277,277,277,277,
277,277,277,277,277,277,277,277,277,277,0,0,0,0,0,0,0,0,277,277,277,277,277,277,277,277,277,277,277,277,
277,277,277,277,277,277,277,277,277,277,0,0,0,0,0,0,0,0,277,277,277,277,277,277,277,277,277,277,277,277,
294,310,310,310,310,310,310,310,310,310,0,0,0,0,0,0,0,0,309,309,309,309,309,309,309,309,309,309,309,310,
310,326,326,326,326,326,326,326,326,326,0,0,0,0,0,0,0,0,325,325,325,325,325,325,325,325,325,325,325,326,
326,0,0,0,0,0,0,0,0,0,0,0,0,0,0,0,0,0,0,0,0,0,0,0,0,0,0,0,0,0,
0,0,0,0,0,0,0,0,0,0,0,0,0,0,0,0,0,0,0,0,0,0,0,0,0,0,0,0,0,0,
277,278,277,278,277,278,277,278,277,278,0,0,0,0,0,0,0,0,0,0,0,0,0,0,0,0,0,0,0,0,
293,294,293,294,293,294,293,294,293,294,0,0,0,0,0,0,0,0,0,0,0,0,0,0,0,0,0,0,0,0,
310,310,310,310,310,310,310,310,310,310,0,0,0,0,0,0,0,0,0,0,0,0,0,0,0,0,0,0,277,278,
326,326,326,326,326,326,326,326,326,326,0,0,0,0,0,0,0,0,0,0,0,0,0,0,0,0,0,0,277,278,
0,0,0,0,0,0,0,0,0,0,0,0,0,0,0,0,0,0,0,0,0,0,0,0,0,0,0,0,277,278,
0,0,0,0,0,0,0,0,0,0,0,277,277,277,278,278,278,277,277,278,0,0,0,0,0,0,0,0,277,278,
0,0,0,0,0,0,0,0,0,0,0,277,277,277,278,278,278,278,278,278,0,0,0,0,0,0,0,0,277,278,
0,0,0,0,0,0,0,0,0,0,0,277,277,277,278,278,278,278,278,278,0,0,0,0,0,0,0,0,277,278,
277,278,277,278,277,278,277,278,0,0,0,277,277,278,278,278,278,278,278,278,0,0,0,0,0,0,0,0,277,278,
277,277,277,277,277,277,277,278,0,0,0,277,278,278,278,278,278,278,278,278,0,0,0,0,0,0,0,0,277,278,
277,277,277,277,277,277,277,278,0,0,0,277,278,278,278,278,278,278,278,278,0,0,0,0,0,0,0,0,277,278,
277,277,277,277,277,277,277,278,0,0,0,277,278,278,278,278,278,278,278,278,0,0,0,0,0,0,0,0,277,278,
277,277,278,277,277,278,277,278,0,0,0,278,278,278,278,278,278,278,278,278,0,0,0,0,0,0,0,0,277,278,
277,277,278,277,277,278,277,278,0,0,0,277,278,278,278,278,278,278,278,278,0,0,0,0,0,0,0,0,277,278,
277,278,278,277,277,278,277,278,0,0,0,293,294,294,294,294,294,294,293,294,0,0,0,0,0,0,0,0,277,278,
277,277,277,277,277,278,277,278,0,0,0,309,309,309,309,309,309,309,309,310,0,0,0,0,0,0,0,0,277,278,
277,277,277,277,277,278,277,278,0,0,0,325,325,325,325,325,325,325,325,326,0,0,0,0,0,0,0,0,277,278,
277,277,277,277,277,278,278,278,0,0,0,0,0,0,0,0,0,0,0,0,0,0,0,0,0,0,0,0,277,278,
277,277,277,277,277,278,278,278,0,0,0,0,0,0,0,0,0,0,0,0,0,0,0,0,0,0,0,0,277,278,
277,277,277,277,277,278,278,278,277,277,277,277,277,277,277,277,277,277,277,277,277,278,277,278,0,0,0,0,277,278,
277,277,277,277,277,278,277,278,277,278,277,278,277,278,277,278,277,278,277,277,277,278,277,278,0,0,0,0,277,278,
277,277,277,277,277,278,277,278,277,278,277,278,277,278,277,278,277,278,277,277,277,278,277,278,0,0,0,0,293,294,
277,277,277,277,277,277,278,278,277,278,277,278,277,278,277,278,277,277,277,277,277,278,277,278,0,0,0,0,309,310,
293,293,277,277,277,278,277,278,277,278,277,278,277,278,277,278,277,277,277,277,278,278,277,278,0,0,0,0,325,326
</data>
 </layer>
 <layer name="Collisions" width="30" height="35">
  <properties>
   <property name="collision" value="full"/>
  </properties>
  <data encoding="csv">
0,0,0,0,0,0,0,533,0,0,0,0,0,0,0,0,0,0,0,0,533,0,0,0,0,0,0,0,0,0,
0,0,0,0,0,0,0,533,0,0,0,0,0,0,0,0,0,0,0,0,533,0,0,0,0,0,0,0,0,0,
0,0,0,0,0,0,0,533,0,0,0,0,0,0,0,0,0,0,0,0,533,0,0,0,0,0,0,0,0,0,
0,0,0,0,0,0,0,533,0,0,0,0,0,0,0,0,0,0,0,0,533,0,0,0,0,0,0,0,0,0,
0,0,0,0,0,0,0,533,0,0,0,0,0,0,0,0,0,0,0,0,533,0,0,0,0,0,0,0,0,0,
0,0,0,0,0,0,533,533,533,533,0,0,0,0,0,0,0,0,533,533,533,0,0,0,0,0,0,0,0,0,
0,0,0,0,0,0,0,0,0,533,0,0,0,0,0,0,0,0,533,0,0,0,0,0,0,0,0,0,0,0,
533,0,0,0,0,0,0,0,0,533,0,0,0,0,0,0,0,0,533,0,0,0,0,0,0,0,0,0,0,0,
533,533,533,533,533,533,533,533,533,533,0,0,0,0,0,0,0,0,533,533,533,533,533,533,533,533,533,533,533,533,
533,0,0,0,0,0,0,0,0,0,0,0,0,0,0,0,0,0,0,0,0,0,0,0,0,0,0,0,0,0,
0,0,0,0,0,0,0,0,0,0,0,0,0,0,0,0,0,0,0,0,0,0,0,0,0,0,0,0,0,0,
533,533,533,533,533,533,533,533,533,533,0,0,0,0,0,0,0,0,0,0,0,0,0,0,0,0,0,0,0,0,
533,533,533,533,533,533,533,533,533,533,0,0,0,0,0,0,0,0,0,0,0,0,0,0,0,0,0,0,0,0,
533,533,533,533,533,533,533,533,533,533,0,0,0,0,0,0,0,0,0,0,0,0,0,0,0,0,0,0,533,533,
533,533,533,533,533,533,533,533,533,533,0,0,0,0,0,0,0,0,0,0,0,0,0,0,0,0,0,0,533,0,
0,0,0,0,0,0,0,0,0,0,0,0,0,0,0,0,0,0,0,0,0,0,0,0,0,0,0,0,533,0,
0,0,0,0,0,0,0,0,0,0,0,533,533,533,533,533,533,533,533,533,0,0,0,0,0,0,0,0,533,0,
0,0,0,0,0,0,0,0,0,0,0,533,533,0,0,0,0,0,533,533,0,0,0,0,0,0,0,0,533,0,
0,0,0,0,0,0,0,0,0,0,0,533,533,0,0,0,0,0,533,533,0,0,0,0,0,0,0,0,533,0,
533,533,533,533,533,533,533,533,0,0,0,533,533,0,0,0,0,0,0,533,0,0,0,0,0,0,0,0,533,0,
0,0,0,0,0,0,0,533,0,0,0,533,533,0,0,0,0,0,533,533,0,0,0,0,0,0,0,0,533,0,
0,0,0,0,0,0,0,533,0,0,0,533,533,0,0,0,0,0,533,533,0,0,0,0,0,0,0,0,533,0,
0,0,0,0,0,0,0,533,0,0,0,533,533,0,0,0,0,0,0,533,0,0,0,0,0,0,0,0,533,0,
0,0,0,0,0,0,0,533,0,0,0,533,533,0,0,0,0,0,0,533,0,0,0,0,0,0,0,0,533,0,
0,0,0,0,0,0,533,533,0,0,0,533,533,0,0,0,0,0,0,533,0,0,0,0,0,0,0,0,533,0,
0,0,0,0,0,0,533,533,0,0,0,533,0,0,0,0,0,0,0,533,0,0,0,0,0,0,0,0,533,0,
0,0,0,0,0,0,533,533,0,0,0,533,0,0,0,0,0,0,0,533,0,0,0,0,0,0,0,0,533,0,
0,0,0,0,0,0,533,533,0,0,0,533,533,533,533,533,533,533,533,533,0,0,0,0,0,0,0,0,533,0,
0,0,0,0,0,0,0,533,0,0,0,0,0,0,0,0,0,0,0,0,0,0,0,0,0,0,0,0,533,0,
0,0,0,0,0,0,0,533,0,0,0,0,0,0,0,0,0,0,0,0,0,0,0,0,0,0,0,0,533,0,
0,0,0,0,0,0,0,533,533,533,533,533,533,533,533,533,533,533,533,533,533,533,533,533,0,0,0,0,533,0,
0,0,0,0,0,0,0,0,0,0,0,0,533,533,533,533,533,0,0,0,0,0,0,533,0,0,0,0,533,0,
0,0,0,0,0,0,0,0,0,0,0,0,0,0,0,0,0,0,0,0,0,0,0,533,0,0,0,0,533,0,
0,0,0,0,0,0,0,0,0,0,0,0,0,0,0,0,0,0,0,0,0,0,0,533,0,0,0,0,533,533,
0,0,0,0,0,0,0,0,0,0,0,0,0,0,0,0,0,0,0,0,0,0,0,533,0,0,0,0,533,533
</data>
 </layer>
 <objectgroup name="Events">
  <object id="1" x="3" y="480" width="48" height="48">
   <properties>
    <property name="eventId" value="002"/>
   </properties>
  </object>
  <object id="5" x="576" y="54" width="48" height="48">
   <properties>
    <property name="eventId" value="003"/>
   </properties>
  </object>
  <object id="6" x="672.667" y="56.6667" width="48" height="48">
   <properties>
    <property name="eventId" value="004"/>
   </properties>
  </object>
  <object id="7" x="1150.48" y="1637.52" width="48" height="48">
   <properties>
    <property name="eventId" value="005"/>
   </properties>
  </object>
  <object id="9" x="1199.33" y="1636.67" width="48" height="48">
   <properties>
    <property name="eventId" value="006"/>
   </properties>
  </object>
  <object id="10" x="1248.09" y="1637.03" width="48" height="48">
   <properties>
    <property name="eventId" value="007"/>
   </properties>
  </object>
  <object id="11" x="1296.61" y="1636.85" width="48" height="48">
   <properties>
    <property name="eventId" value="008"/>
   </properties>
  </object>
 </objectgroup>
</map>
