<?xml version="1.0" encoding="UTF-8"?>
<map version="1.0" tiledversion="1.0.3" orientation="orthogonal" renderorder="right-down" width="17" height="13" tilewidth="48" tileheight="48" nextobjectid="4">
 <tileset firstgid="1" name="Dungeon_A4" tilewidth="48" tileheight="48" tilecount="240" columns="16">
  <image source="../img/tilesets/Dungeon_A4.png" width="768" height="720"/>
 </tileset>
 <tileset firstgid="241" name="TileCollision_48x48" tilewidth="48" tileheight="48" tilecount="20" columns="5">
  <image source="../img/tilesets/TileCollision_48x48.png" width="240" height="192"/>
 </tileset>
 <layer name="Tile Layer 1" width="17" height="13">
  <data encoding="csv">
51,51,51,51,51,51,51,51,51,51,51,51,51,51,51,51,51,
51,51,51,51,51,51,51,51,51,51,51,51,51,51,51,51,51,
19,4,4,4,4,4,4,4,4,4,4,4,4,4,4,4,20,
4,4,4,4,4,4,4,4,4,4,4,4,4,4,4,4,4,
4,4,4,4,4,4,4,4,4,4,4,4,4,4,4,4,4,
4,4,4,4,4,4,4,4,4,4,4,4,4,4,4,4,4,
4,4,4,4,4,4,4,4,4,4,4,4,4,4,4,4,4,
4,4,4,4,4,4,4,4,4,4,4,4,4,4,4,4,4,
4,4,4,4,4,4,4,4,4,4,4,4,4,4,4,4,4,
4,4,4,4,4,4,4,4,4,4,4,4,4,4,4,4,4,
4,4,4,4,4,4,4,4,4,4,4,4,4,4,4,4,4,
4,4,4,4,4,4,4,4,4,4,4,4,4,4,4,4,4,
35,4,4,4,4,4,4,4,4,4,4,4,4,4,4,4,36
</data>
 </layer>
 <objectgroup name="Object Layer 1">
  <object id="2" x="384" y="575.333" width="47.3333" height="48.6667">
   <properties>
    <property name="eventId" value="002"/>
   </properties>
  </object>
  <object id="3" x="384" y="95.3333" width="48.6667" height="46.6667">
   <properties>
    <property name="eventId" value="001"/>
   </properties>
  </object>
 </objectgroup>
 <layer name="collisions" width="17" height="13">
  <properties>
   <property name="collision" value="full"/>
  </properties>
  <data encoding="csv">
241,241,241,241,241,241,241,241,241,241,241,241,241,241,241,241,241,
241,241,241,241,241,241,241,241,241,241,241,241,241,241,241,241,241,
0,0,0,0,0,0,0,0,0,0,0,0,0,0,0,0,0,
0,0,0,0,0,0,0,0,0,0,0,0,0,0,0,0,0,
0,0,0,0,0,0,0,0,0,0,0,0,0,0,0,0,0,
0,0,0,0,0,0,0,0,0,0,0,0,0,0,0,0,0,
0,0,0,0,0,0,0,0,0,0,0,0,0,0,0,0,0,
0,0,0,0,0,0,0,0,0,0,0,0,0,0,0,0,0,
0,0,0,0,0,0,0,0,0,0,0,0,0,0,0,0,0,
0,0,0,0,0,0,0,0,0,0,0,0,0,0,0,0,0,
0,0,0,0,0,0,0,0,0,0,0,0,0,0,0,0,0,
0,0,0,0,0,0,0,0,0,0,0,0,0,0,0,0,0,
0,0,0,0,0,0,0,0,0,0,0,0,0,0,0,0,0
</data>
 </layer>
</map>
