<?xml version="1.0" encoding="UTF-8"?>
<map version="1.0" tiledversion="1.0.3" orientation="orthogonal" renderorder="right-down" width="30" height="40" tilewidth="48" tileheight="48" nextobjectid="3">
 <tileset firstgid="1" name="Inside_A2" tilewidth="48" tileheight="48" tilecount="192" columns="16">
  <image source="../img/tilesets/Inside_A2.png" width="768" height="576"/>
 </tileset>
 <tileset firstgid="193" name="Inside_A5" tilewidth="48" tileheight="48" tilecount="128" columns="8">
  <image source="../img/tilesets/Inside_A5.png" width="384" height="768"/>
 </tileset>
 <tileset firstgid="321" name="Inside_B" tilewidth="48" tileheight="48" tilecount="256" columns="16">
  <image source="../img/tilesets/Inside_B.png" width="768" height="768"/>
 </tileset>
 <tileset firstgid="577" name="TileCollision_48x48" tilewidth="48" tileheight="48" tilecount="20" columns="5">
  <image source="../img/tilesets/TileCollision_48x48.png" width="240" height="192"/>
 </tileset>
 <tileset firstgid="597" name="CrapetTiles" tilewidth="48" tileheight="48" tilecount="18" columns="6">
  <image source="../img/tilesets/CrapetTiles.png" width="288" height="144"/>
 </tileset>
 <layer name="Tile Layer 1" width="30" height="40">
  <data encoding="csv">
222,185,185,185,185,185,185,185,185,185,185,185,185,185,185,185,185,185,185,185,185,185,185,185,185,185,185,185,185,222,
222,185,185,185,185,185,185,185,185,185,185,185,185,185,185,185,185,185,185,185,185,185,185,185,185,185,185,185,185,222,
222,185,185,185,185,185,185,185,185,185,185,185,185,185,185,185,185,185,185,185,185,185,185,185,185,185,185,185,185,222,
222,185,185,185,185,185,185,185,185,185,185,185,185,185,185,185,185,185,185,185,185,185,185,185,185,185,185,185,185,222,
222,222,222,222,222,222,222,185,222,222,222,222,222,222,222,222,222,222,222,222,222,222,222,222,222,222,222,222,222,222,
222,222,222,222,222,222,222,228,222,222,222,222,222,222,222,222,222,222,222,222,222,222,222,222,222,222,222,222,222,222,
228,228,228,228,228,228,228,228,228,228,228,228,228,228,228,228,228,228,228,228,228,228,228,228,228,228,228,228,228,228,
228,598,598,598,598,598,598,598,598,598,598,598,598,598,598,598,598,598,598,598,598,598,598,598,598,598,598,598,598,228,
603,604,604,604,604,604,604,604,604,604,604,604,604,604,604,604,604,604,604,604,604,604,604,604,604,604,604,604,604,605,
228,610,610,610,610,610,602,604,600,610,610,610,610,610,610,610,610,610,610,610,610,610,610,610,610,610,610,610,610,228,
228,228,228,228,228,228,603,604,605,228,228,228,228,228,228,228,228,228,228,228,228,228,228,228,228,228,228,228,228,228,
222,222,222,228,228,228,603,604,605,222,222,222,222,222,222,222,222,222,222,222,222,222,222,222,222,222,222,222,222,222,
222,222,222,228,228,228,603,604,605,222,222,222,222,222,222,222,222,222,222,222,222,222,222,222,222,222,222,222,222,222,
222,222,222,228,228,228,603,604,605,222,222,222,222,222,222,222,222,222,222,222,222,222,222,222,222,222,222,222,222,222,
222,222,222,228,228,228,603,604,605,222,222,222,222,222,222,222,222,222,222,222,222,222,222,222,222,222,222,222,222,222,
222,222,222,228,228,228,603,604,605,222,222,222,222,222,222,222,222,222,222,222,222,222,222,222,222,222,222,222,222,222,
228,598,598,598,598,598,614,604,612,598,598,598,598,598,598,598,598,598,598,598,598,598,598,598,598,598,598,598,598,228,
603,604,604,604,604,604,604,604,604,604,604,604,604,604,604,604,604,604,604,604,604,604,604,604,604,604,604,604,604,605,
228,610,610,610,610,610,602,604,600,610,610,610,610,610,610,610,610,610,610,610,610,610,610,610,610,610,610,610,610,228,
222,222,222,222,222,222,603,604,605,222,222,222,222,222,222,222,222,222,222,222,222,222,222,222,222,222,222,222,222,222,
222,222,222,222,222,222,603,604,605,222,222,222,222,222,222,222,222,222,222,222,222,222,222,222,222,222,222,222,222,222,
185,185,185,185,222,222,603,604,605,222,222,185,185,185,185,185,185,185,185,185,185,185,185,185,185,185,185,185,222,222,
185,185,185,185,222,222,603,604,605,222,222,185,185,185,185,185,185,185,185,185,185,185,185,185,185,185,185,185,222,222,
185,185,185,185,222,222,603,604,605,222,222,185,185,185,185,185,185,185,185,185,185,185,185,185,185,185,185,185,222,222,
185,185,185,185,222,222,603,604,605,222,222,185,185,185,185,185,185,185,185,185,185,185,185,185,185,185,185,185,222,222,
185,185,185,185,185,228,603,604,605,222,222,222,222,222,222,185,222,222,222,222,222,222,222,222,222,222,222,222,222,222,
185,185,185,185,222,222,603,604,605,222,222,222,222,222,222,228,222,222,222,222,222,222,222,222,222,222,222,222,222,222,
185,185,185,185,222,222,603,604,612,598,598,598,598,598,598,598,598,598,598,598,598,598,598,598,598,598,598,598,598,228,
185,185,185,185,222,222,603,604,604,604,604,604,604,604,604,604,604,604,604,604,604,604,604,604,604,604,604,604,604,605,
222,222,222,222,222,222,603,604,600,610,610,610,610,610,610,610,610,610,610,610,610,610,610,610,610,610,610,610,610,228,
222,222,222,222,222,222,603,604,605,222,222,222,222,222,222,228,222,222,222,222,222,222,222,222,222,222,222,222,222,222,
228,228,228,228,228,228,603,604,605,222,222,222,222,222,222,185,222,222,222,222,222,222,222,222,222,222,222,222,222,222,
228,228,598,598,598,598,614,604,605,222,222,185,185,185,185,185,185,185,185,185,185,185,185,185,185,185,185,185,222,222,
228,603,604,604,604,604,604,604,605,222,222,185,185,185,185,185,185,185,185,185,185,185,185,185,185,185,185,185,222,222,
228,603,604,604,604,604,604,604,605,222,222,185,185,185,185,185,185,185,185,185,185,185,185,185,185,185,185,185,222,222,
228,603,604,604,604,604,604,604,605,222,222,185,185,185,185,185,185,185,185,185,185,185,185,185,185,185,185,185,222,222,
228,603,604,604,604,604,604,604,605,222,222,185,185,185,185,185,185,185,185,185,185,185,185,185,185,185,185,185,222,222,
228,603,604,604,604,604,604,604,605,222,222,185,185,185,185,185,185,185,185,185,185,185,185,185,185,185,185,185,222,222,
228,603,604,604,604,604,604,604,605,222,222,185,185,185,185,185,185,185,185,185,185,185,185,185,185,185,185,185,222,222,
228,228,610,610,610,610,610,610,228,222,222,185,185,185,185,185,185,185,185,185,185,185,185,185,185,185,185,185,222,222
</data>
 </layer>
 <layer name="Tile Layer 2" width="30" height="40">
  <data encoding="csv">
0,0,0,0,0,0,0,0,0,0,0,0,0,0,0,0,0,0,0,0,0,0,0,0,0,0,0,0,0,0,
0,0,0,0,0,0,0,0,0,0,0,0,0,0,0,0,0,0,0,0,0,0,0,0,0,0,0,0,0,0,
0,0,0,0,0,0,0,0,0,0,0,0,0,0,0,0,0,0,0,0,0,0,0,0,0,0,0,0,0,0,
0,0,0,0,0,0,0,0,0,0,0,0,0,0,0,0,0,0,0,0,0,0,0,0,0,0,0,0,0,0,
0,0,0,0,0,0,0,0,0,0,0,0,0,0,0,0,0,0,0,0,0,0,0,0,0,0,0,0,0,0,
0,478,0,0,0,0,0,0,0,0,0,0,0,0,0,0,0,0,0,0,0,0,0,0,0,0,0,0,478,0,
0,494,0,0,0,0,0,0,0,0,0,0,0,0,0,0,0,0,0,0,0,0,0,0,0,0,0,0,494,0,
597,0,0,0,0,0,0,0,0,0,0,0,0,0,0,0,0,0,0,0,0,0,0,0,0,0,0,0,0,599,
0,0,0,0,0,0,0,0,0,0,0,0,0,0,0,0,0,0,0,0,0,0,0,0,0,0,0,0,0,0,
609,478,0,0,0,0,0,0,0,0,0,0,0,0,0,0,0,0,0,0,0,0,0,0,0,0,0,0,478,611,
0,494,0,0,0,0,0,0,0,0,0,0,0,0,0,0,0,0,0,0,0,0,0,0,0,0,0,0,494,0,
0,0,0,0,0,0,0,0,0,0,0,0,0,0,0,0,0,0,0,0,0,0,0,0,0,0,0,0,0,0,
0,0,0,0,0,0,0,0,0,0,0,0,0,0,0,0,0,0,0,0,0,0,0,0,0,0,0,0,0,0,
0,0,0,0,0,0,0,0,0,0,0,0,0,0,0,0,0,399,400,0,0,0,0,0,0,0,0,0,0,0,
0,0,0,0,0,0,0,0,0,0,413,0,0,0,0,414,0,0,0,0,415,0,0,0,0,416,0,0,0,0,
0,0,0,0,0,0,0,0,0,0,0,0,0,0,0,0,0,0,0,0,0,0,0,0,0,0,0,0,0,0,
597,0,0,0,0,0,0,0,0,0,0,0,0,0,0,0,0,0,0,0,0,0,0,0,0,0,0,0,0,599,
0,0,0,0,0,0,0,0,0,0,0,0,0,0,0,0,0,0,0,0,0,0,0,0,0,0,0,0,0,0,
609,0,0,0,0,0,0,0,0,0,0,0,0,0,0,0,0,0,0,0,0,0,0,0,0,0,0,0,0,611,
0,0,0,0,0,0,0,0,0,0,0,0,0,0,0,0,0,0,0,0,0,0,0,0,0,0,0,0,0,0,
0,0,0,0,0,0,0,0,0,0,0,0,0,0,0,0,0,0,0,0,0,0,0,0,0,0,0,0,0,0,
0,0,0,0,0,0,0,0,0,0,0,0,0,0,0,0,0,0,0,0,0,0,0,0,0,0,0,0,0,0,
0,0,0,0,0,0,0,0,0,0,0,0,0,0,0,0,0,0,0,0,0,0,0,0,0,0,0,0,0,0,
0,0,0,0,0,0,0,0,0,0,0,0,0,0,0,0,0,0,0,0,0,0,0,0,0,0,0,0,0,0,
0,0,0,0,0,0,0,0,0,0,0,0,0,0,0,0,0,0,0,0,0,0,0,0,0,0,0,0,0,0,
0,0,0,0,0,0,0,0,0,0,0,0,0,0,0,0,0,0,0,0,0,0,0,0,0,0,0,0,0,0,
0,0,0,0,0,0,0,0,0,0,0,0,0,0,0,0,0,0,0,0,0,0,0,0,0,0,0,0,0,0,
0,0,0,0,0,0,0,0,0,0,0,0,0,0,0,0,0,0,0,0,0,0,0,0,0,0,0,0,0,599,
0,0,0,0,0,0,0,0,0,0,0,0,0,0,0,0,0,0,0,0,0,0,0,0,0,0,0,0,0,0,
0,0,0,0,0,0,0,0,0,0,0,0,0,0,0,0,0,0,0,0,0,0,0,0,0,0,0,0,0,611,
0,478,0,0,0,0,0,0,0,0,0,0,0,0,0,0,0,0,0,0,0,0,0,0,0,0,0,0,0,0,
0,494,0,0,0,0,0,0,0,0,0,0,0,0,0,0,0,0,0,0,0,0,0,0,0,0,0,0,0,0,
0,597,0,0,0,0,0,0,0,0,0,0,0,0,0,0,0,0,0,0,0,0,0,0,0,0,0,0,0,0,
0,0,0,0,0,0,0,0,0,0,0,0,0,0,0,0,0,0,0,0,0,0,0,0,0,0,0,0,0,0,
0,0,0,0,0,0,0,0,0,0,0,0,0,0,0,0,0,0,0,0,0,0,0,0,0,0,0,0,0,0,
0,0,0,0,0,0,0,0,0,0,0,0,0,0,0,0,0,0,0,0,0,0,0,0,0,0,0,0,0,0,
0,0,0,0,0,0,0,0,0,0,0,0,0,0,0,0,0,0,0,0,0,0,0,0,0,0,0,0,0,0,
0,0,0,0,0,0,0,0,0,0,0,0,0,0,0,0,0,0,0,0,0,0,0,0,0,0,0,0,0,0,
0,0,0,0,0,0,0,0,0,0,0,0,0,0,0,0,0,0,0,0,0,0,0,0,0,0,0,0,0,0,
0,609,0,0,0,0,0,0,611,0,0,0,0,0,0,0,0,0,0,0,0,0,0,0,0,0,0,0,0,0
</data>
 </layer>
 <layer name="collisions" width="30" height="40">
  <properties>
   <property name="collision" value="full"/>
  </properties>
  <data encoding="csv">
577,0,0,0,0,0,0,0,0,0,0,0,0,0,0,0,0,0,0,0,0,0,0,0,0,0,0,0,0,577,
577,0,0,0,0,0,0,0,0,0,0,0,0,0,0,0,0,0,0,0,0,0,0,0,0,0,0,0,0,577,
577,0,0,0,0,0,0,0,0,0,0,0,0,0,0,0,0,0,0,0,0,0,0,0,0,0,0,0,0,577,
577,0,0,0,0,0,0,0,0,0,0,0,0,0,0,0,0,0,0,0,0,0,0,0,0,0,0,0,0,577,
577,577,0,0,0,0,577,577,577,0,0,0,0,0,0,0,0,0,0,0,0,0,0,0,0,0,0,0,0,577,
577,577,577,577,577,577,577,0,577,577,577,577,577,577,577,577,577,577,577,577,577,577,577,577,577,577,577,577,577,577,
0,577,0,0,0,0,0,0,0,0,0,0,0,0,0,0,0,0,0,0,0,0,0,0,0,0,0,0,577,0,
0,0,0,0,0,0,0,0,0,0,0,0,0,0,0,0,0,0,0,0,0,0,0,0,0,0,0,0,0,0,
0,0,0,0,0,0,0,0,0,0,0,0,0,0,0,0,0,0,0,0,0,0,0,0,0,0,0,0,0,0,
0,0,0,0,0,0,0,0,0,0,0,0,0,0,0,0,0,0,0,0,0,0,0,0,0,0,0,0,0,0,
0,577,0,0,0,0,0,0,0,0,0,0,0,0,0,0,0,0,0,0,0,0,0,0,0,0,0,0,577,0,
577,577,577,0,0,0,0,0,0,577,577,577,577,577,577,577,577,577,577,577,577,577,577,577,577,577,577,577,577,577,
0,0,577,0,0,0,0,0,0,577,0,0,0,0,0,0,0,0,0,0,0,0,0,0,0,0,0,0,0,0,
0,0,577,0,0,0,0,0,0,577,0,0,0,0,0,0,0,0,0,0,0,0,0,0,0,0,0,0,0,0,
0,0,577,0,0,0,0,0,0,577,0,0,0,0,0,0,0,0,0,0,0,0,0,0,0,0,0,0,0,0,
577,577,577,0,0,0,0,0,0,577,577,577,577,577,577,577,577,577,577,577,577,577,577,577,577,577,577,577,577,577,
0,0,0,0,0,0,0,0,0,0,0,0,0,0,0,0,0,0,0,0,0,0,0,0,0,0,0,0,0,0,
0,0,0,0,0,0,0,0,0,0,0,0,0,0,0,0,0,0,0,0,0,0,0,0,0,0,0,0,0,0,
0,0,0,0,0,0,0,0,0,0,0,0,0,0,0,0,0,0,0,0,0,0,0,0,0,0,0,0,0,0,
577,577,577,577,577,577,0,0,0,577,577,577,577,577,577,577,577,577,577,577,577,577,577,577,577,577,577,577,577,577,
0,0,0,0,0,577,0,0,0,577,0,0,0,0,0,0,0,0,0,0,0,0,0,0,0,0,0,0,0,0,
0,0,0,0,0,577,0,0,0,577,0,0,0,0,0,0,0,0,0,0,0,0,0,0,0,0,0,0,0,0,
0,0,0,0,0,577,0,0,0,577,0,0,0,0,0,0,0,0,0,0,0,0,0,0,0,0,0,0,0,0,
0,0,0,0,0,577,0,0,0,577,0,0,0,0,0,0,0,0,0,0,0,0,0,0,0,0,0,0,0,0,
0,0,0,0,577,577,0,0,0,577,0,0,0,0,0,0,0,0,0,0,0,0,0,0,0,0,0,0,0,0,
0,0,0,0,577,0,0,0,0,577,0,0,0,0,577,577,577,0,0,0,0,0,0,0,577,0,0,0,0,0,
0,0,0,0,577,577,0,0,0,577,577,577,577,577,577,0,577,577,577,577,577,577,577,577,577,577,577,577,577,577,
0,0,0,0,0,577,0,0,0,0,0,0,0,0,0,0,0,0,0,0,0,0,0,0,0,0,0,0,0,0,
0,0,0,0,0,577,0,0,0,0,0,0,0,0,0,0,0,0,0,0,0,0,0,0,0,0,0,0,0,0,
0,0,0,0,0,577,0,0,0,0,0,0,0,0,0,0,0,0,0,0,0,0,0,0,0,0,0,0,0,0,
577,577,577,577,577,577,0,0,0,577,577,577,577,577,577,0,577,577,577,577,577,577,577,577,577,577,577,577,577,577,
0,577,0,0,0,0,0,0,0,577,0,0,0,0,577,577,577,0,0,0,0,0,0,0,0,577,577,0,0,0,
0,0,0,0,0,0,0,0,0,577,0,0,0,0,0,0,0,0,0,0,0,0,0,0,0,0,0,0,0,0,
0,0,0,0,0,0,0,0,0,577,0,0,0,0,0,0,0,0,0,0,0,0,0,0,0,0,0,0,0,0,
0,0,0,0,0,0,0,0,0,577,0,0,0,0,0,0,0,0,0,0,0,0,0,0,0,0,0,0,0,0,
0,0,0,0,0,0,0,0,0,577,0,0,0,0,0,0,0,0,0,0,0,0,0,0,0,0,0,0,0,0,
0,0,0,0,0,0,0,0,0,577,0,0,0,0,0,0,0,0,0,0,0,0,0,0,0,0,0,0,0,0,
0,0,0,0,0,0,0,0,0,577,0,0,0,0,0,0,0,0,0,0,0,0,0,0,0,0,0,0,0,0,
0,0,0,0,0,0,0,0,0,577,0,0,0,0,0,0,0,0,0,0,0,0,0,0,0,0,0,0,0,0,
0,0,0,0,0,0,0,0,0,577,0,0,0,0,0,0,0,0,0,0,0,0,0,0,0,0,0,0,0,0
</data>
 </layer>
 <objectgroup name="Object Layer 1">
  <object id="1" x="1392.5" y="384.5" width="47.5" height="48"/>
 </objectgroup>
</map>
